X: 30217
T: Old Hag, You Have Killed Me
R: jig
M: 6/8
K: Gmajor
E|:FEF GFG|AdB cAG|AGA dcd|ABc d3|
FEF GFG|AdB cAF|GFG AFD|1 GFE D2 E:|2 GFE D2d||
fed efg|afd cAG|AGA dcd|ABc d2e|
fef gfg|afd cAF|GFG AFD|1 GFE D2 d:|2 GFE D2E||

